svg/fluentui-system-icons/ic_fluent_dismiss_circle_28_filled.svg

<svg width="28" height="28" viewBox="0 0 28 28" fill="none" xmlns="http://www.w3.org/2000/svg">
<path d="M26 14C26 7.37258 20.6274 2 14 2C7.37258 2 2 7.37258 2 14C2 20.6274 7.37258 26 14 26C20.6274 26 26 20.6274 26 14ZM18.2803 9.71967C18.5732 10.0126 18.5732 10.4874 18.2803 10.7803L15.0607 14L18.2803 17.2197C18.5732 17.5126 18.5732 17.9874 18.2803 18.2803C17.9874 18.5732 17.5126 18.5732 17.2197 18.2803L14 15.0607L10.7803 18.2803C10.4874 18.5732 10.0126 18.5732 9.71967 18.2803C9.42678 17.9874 9.42678 17.5126 9.71967 17.2197L12.9393 14L9.71967 10.7803C9.42678 10.4874 9.42678 10.0126 9.71967 9.71967C10.0126 9.42678 10.4874 9.42678 10.7803 9.71967L14 12.9393L17.2197 9.71967C17.5126 9.42678 17.9874 9.42678 18.2803 9.71967Z" fill="#212121"/>
</svg>

<svg xmlns="http://www.w3.org/2000/svg" width="28" height="28"><path d="M26 14c0-6.627-5.373-12-12-12S2 7.373 2 14s5.373 12 12 12 12-5.373 12-12Zm-7.72-4.28a.75.75 0 0 1 0 1.06L15.06 14l3.22 3.22a.75.75 0 1 1-1.06 1.06L14 15.06l-3.22 3.22a.75.75 0 1 1-1.06-1.06L12.94 14l-3.22-3.22a.75.75 0 1 1 1.06-1.06L14 12.94l3.22-3.22a.75.75 0 0 1 1.06 0Z"/></svg>
